packages/calcite-ui-icons/icons/video-metadata-16.svg

<?xml version="1.0" encoding="UTF-8"?><svg id="icons" xmlns="http://www.w3.org/2000/svg" viewBox="0 0 16 16"><defs><style>.cls-1{fill:none;}.cls-2{fill:#231f20;}</style></defs><rect class="cls-1" width="16" height="16"/><path class="cls-2" d="M10,3h-2v-1h2v1ZM10,4h-2v1h2v-1ZM8,7h2v-1h-2v1ZM2,2v1h2v-1h-2ZM6,4H2v1h4v-1ZM2,7h2v-1h-2v1ZM4,10h-2v1h2v-1ZM2,9h3v-1h-3v1ZM16,8v8H6v-8h10ZM15,9H7v6h8v-6ZM1,1h10v6h1V0H0v13h5v-1H1V1ZM10,14l3-1.99963-3-2.00037v4Z"/></svg>

<svg xmlns="http://www.w3.org/2000/svg" viewBox="0 0 16 16"><path d="M0 0h16v16H0z" style="fill:none"/><path d="M10 3H8V2h2zm0 1H8v1h2zM8 7h2V6H8zM2 2v1h2V2zm4 2H2v1h4zM2 7h2V6H2zm2 3H2v1h2zM2 9h3V8H2zm14-1v8H6V8zm-1 1H7v6h8zM1 1h10v6h1V0H0v13h5v-1H1zm9 13 3-2-3-2z" style="fill:#231f20"/></svg>
